Numix-Circle/48x48/apps/luminance-hdr.svg

<svg viewBox="0 0 48 48" xmlns:xlink="http://www.w3.org/1999/xlink"><defs><linearGradient id="linearGradient3764" x1="1" x2="47" gradientUnits="userSpaceOnUse" gradientTransform="matrix(0,-1,1,0,-1.5e-6,47.999998)"><stop stop-color="#7b7b7d" stop-opacity="1"/><stop offset="1" stop-color="#858587" stop-opacity="1"/></linearGradient><clipPath id="clipPath-486516231"><g transform="translate(0,-1004.3622)"><path d="m -24 13 c 0 1.105 -0.672 2 -1.5 2 -0.828 0 -1.5 -0.895 -1.5 -2 0 -1.105 0.672 -2 1.5 -2 0.828 0 1.5 0.895 1.5 2 z" transform="matrix(15.333333,0,0,11.5,414.99999,878.8622)" fill="#1890d0"/></g></clipPath><clipPath id="clipPath-499325049"><g transform="translate(0,-1004.3622)"><path d="m -24 13 c 0 1.105 -0.672 2 -1.5 2 -0.828 0 -1.5 -0.895 -1.5 -2 0 -1.105 0.672 -2 1.5 -2 0.828 0 1.5 0.895 1.5 2 z" transform="matrix(15.333333,0,0,11.5,414.99999,878.8622)" fill="#1890d0"/></g></clipPath><linearGradient id="linear0" gradientUnits="userSpaceOnUse" x1="-8.184" x2="-5.362" gradientTransform="matrix(0,-3.543307,-3.543307,0,0,0)"><stop stop-color="#c7b955" stop-opacity="1"/><stop offset="1" stop-color="#de7d53" stop-opacity="1"/></linearGradient><linearGradient id="linear1" gradientUnits="userSpaceOnUse" y1="-4.219" x2="0" y2="12.607" gradientTransform="matrix(0.377409,0,0,0.356586,25.072993,22.504552)"><stop stop-color="#fff" stop-opacity="0.6"/><stop offset="1" stop-color="#000" stop-opacity="0"/></linearGradient><linearGradient id="linear0" gradientUnits="userSpaceOnUse" x1="-8.184" x2="-5.362" gradientTransform="matrix(0,-3.543307,-3.543307,0,0,0)"><stop stop-color="#c7b955" stop-opacity="1"/><stop offset="1" stop-color="#de7d53" stop-opacity="1"/></linearGradient><linearGradient id="linear1" gradientUnits="userSpaceOnUse" y1="-4.219" x2="0" y2="12.607" gradientTransform="matrix(0.377409,0,0,0.356586,25.072993,22.504552)"><stop stop-color="#fff" stop-opacity="0.6"/><stop offset="1" stop-color="#000" stop-opacity="0"/></linearGradient></defs><g><g transform="translate(0,-1004.3622)"><path d="m 25 1006.36 c -12.703 0 -23 10.298 -23 23 0 6.367 2.601 12.12 6.781 16.281 4.085 3.712 9.514 5.969 15.469 5.969 12.703 0 23 -10.297 23 -23 0 -5.954 -2.256 -11.384 -5.969 -15.469 -4.165 -4.181 -9.914 -6.781 -16.281 -6.781 z m 16.281 6.781 c 3.854 4.113 6.219 9.637 6.219 15.719 0 12.703 -10.297 23 -23 23 -6.081 0 -11.606 -2.364 -15.719 -6.219 4.16 4.144 9.883 6.719 16.219 6.719 12.703 0 23 -10.297 23 -23 0 -6.335 -2.575 -12.06 -6.719 -16.219 z" opacity="0.05"/><path d="m 41.28 1013.14 c 3.712 4.085 5.969 9.514 5.969 15.469 0 12.703 -10.297 23 -23 23 -5.954 0 -11.384 -2.256 -15.469 -5.969 4.113 3.854 9.637 6.219 15.719 6.219 12.703 0 23 -10.297 23 -23 0 -6.081 -2.364 -11.606 -6.219 -15.719 z" opacity="0.1"/><path transform="matrix(15.333333,0,0,11.5,415.24999,879.11222)" d="m -24 13 a 1.5 2 0 1 1 -3 0 1.5 2 0 1 1 3 0 z" opacity="0.2"/></g></g><g><path d="m 24 1 c 12.703 0 23 10.297 23 23 c 0 12.703 -10.297 23 -23 23 -12.703 0 -23 -10.297 -23 -23 0 -12.703 10.297 -23 23 -23 z" fill="url(#linearGradient3764)" fill-opacity="1"/></g><g/><g><g clip-path="url(#clipPath-486516231)"><g transform="translate(0,1)"><g opacity="0.1"><!-- color: #858587 --><g><path d="m 39.01 24.01 l 0 -0.004 c 0 -8.281 -6.715 -14.996 -15 -14.996 l -0.004 0 c -8.281 0 -14.996 6.715 -14.996 14.996 l 0 0.004 c 0 8.285 6.715 15 14.996 15 l 0.004 0 c 8.285 0 15 -6.715 15 -15 m 0 0" fill="#000" stroke="none" fill-rule="evenodd" fill-opacity="1"/><path d="m 37 24 c 0 -7.18 -5.82 -13 -13 -13 c -7.18 0 -13 5.82 -13 13 c 0 7.18 5.82 13 13 13 c 7.18 0 13 -5.82 13 -13 m 0 0" fill="#000" stroke="none" fill-rule="evenodd" fill-opacity="1"/><path d="m 35 24 l 0 -0.004 c 0 -6.074 -4.922 -11 -10.996 -11 l -0.004 0 c -6.074 0 -11 4.926 -11 11 l 0 0.004 c 0 6.074 4.926 10.996 11 10.996 l 0.004 0 c 6.074 0 10.996 -4.922 10.996 -10.996 m 0 0" fill="#000" stroke="none" fill-rule="evenodd" fill-opacity="1"/><path d="m 33 24 c 0 -4.973 -4.03 -9 -9 -9 c -4.973 0 -9 4.03 -9 9 c 0 4.969 4.03 9 9 9 c 4.969 0 9 -4.03 9 -9 m 0 0" fill="#000" stroke="none" fill-rule="evenodd" fill-opacity="1"/><path d="m 31 24 l 0 -0.004 c 0 -3.867 -3.133 -7 -6.996 -7 l -0.004 0 c -3.867 0 -7 3.133 -7 7 l 0 0.004 c 0 3.863 3.133 6.996 7 6.996 l 0.004 0 c 3.863 0 6.996 -3.133 6.996 -6.996 m 0 0" fill="#000" stroke="none" fill-rule="evenodd" fill-opacity="1"/><path d="m 29 24 c 0 -2.762 -2.238 -5 -5 -5 c -2.762 0 -5 2.238 -5 5 c 0 2.762 2.238 5 5 5 c 2.762 0 5 -2.238 5 -5 m 0 0" fill="#000" stroke="none" fill-rule="evenodd"/><path d="m 27 24 c 0 1.656 -1.344 3 -3 3 c -1.656 0 -3 -1.344 -3 -3 c 0 -1.656 1.344 -3 3 -3 c 1.656 0 3 1.344 3 3 m 0 0" fill="#000" stroke="none" fill-rule="nonzero"/><use xlink:href="#SVGCleanerId_0"/><path d="m 0 0 l 0 32 l 24 -8 l 0 -24 m -24 0" fill="#000" stroke="none" fill-rule="nonzero" fill-opacity="0.302"/><path d="m 24 24 l -24 8 l 0 16 l 48 0 l 0 -16.25 l -23.996 -7.746 m -0.004 -0.004" fill="#000" stroke="none" fill-rule="nonzero" fill-opacity="0.282"/></g></g></g></g></g><g><g clip-path="url(#clipPath-499325049)"><!-- color: #858587 --><g><path d="m 39.01 24.01 l 0 -0.004 c 0 -8.281 -6.715 -14.996 -15 -14.996 l -0.004 0 c -8.281 0 -14.996 6.715 -14.996 14.996 l 0 0.004 c 0 8.285 6.715 15 14.996 15 l 0.004 0 c 8.285 0 15 -6.715 15 -15 m 0 0" fill="#292929" stroke="none" fill-rule="evenodd" fill-opacity="1"/><path d="m 37 24 c 0 -7.18 -5.82 -13 -13 -13 c -7.18 0 -13 5.82 -13 13 c 0 7.18 5.82 13 13 13 c 7.18 0 13 -5.82 13 -13 m 0 0" fill="#2f2f2f" stroke="none" fill-rule="evenodd" fill-opacity="1"/><path d="m 35 24 l 0 -0.004 c 0 -6.074 -4.922 -11 -10.996 -11 l -0.004 0 c -6.074 0 -11 4.926 -11 11 l 0 0.004 c 0 6.074 4.926 10.996 11 10.996 l 0.004 0 c 6.074 0 10.996 -4.922 10.996 -10.996 m 0 0" fill="#333" stroke="none" fill-rule="evenodd" fill-opacity="1"/><path d="m 33 24 c 0 -4.973 -4.03 -9 -9 -9 c -4.973 0 -9 4.03 -9 9 c 0 4.969 4.03 9 9 9 c 4.969 0 9 -4.03 9 -9 m 0 0" fill="#444" stroke="none" fill-rule="evenodd" fill-opacity="1"/><path d="m 31 24 l 0 -0.004 c 0 -3.867 -3.133 -7 -6.996 -7 l -0.004 0 c -3.867 0 -7 3.133 -7 7 l 0 0.004 c 0 3.863 3.133 6.996 7 6.996 l 0.004 0 c 3.863 0 6.996 -3.133 6.996 -6.996 m 0 0" fill="#545454" stroke="none" fill-rule="evenodd" fill-opacity="1"/><path d="m 29 24 c 0 -2.762 -2.238 -5 -5 -5 c -2.762 0 -5 2.238 -5 5 c 0 2.762 2.238 5 5 5 c 2.762 0 5 -2.238 5 -5 m 0 0" fill="url(#linear0)" stroke="none" fill-rule="evenodd"/><path d="m 27 24 c 0 1.656 -1.344 3 -3 3 c -1.656 0 -3 -1.344 -3 -3 c 0 -1.656 1.344 -3 3 -3 c 1.656 0 3 1.344 3 3 m 0 0" fill="url(#linear1)" stroke="none" fill-rule="nonzero"/><path d="m 24 0 l 0 24 l 24 7.75 l 0 -31.75 m -24 0" fill="#000" stroke="none" fill-rule="nonzero" fill-opacity="0.302" id="SVGCleanerId_0"/><path d="m 0 0 l 0 32 l 24 -8 l 0 -24 m -24 0" fill="#fff" stroke="none" fill-rule="nonzero" fill-opacity="0.302"/><path d="m 24 24 l -24 8 l 0 16 l 48 0 l 0 -16.25 l -23.996 -7.746 m -0.004 -0.004" fill="#aaaaaf" stroke="none" fill-rule="nonzero" fill-opacity="0.282"/></g></g></g><g><path d="m 40.03 7.531 c 3.712 4.084 5.969 9.514 5.969 15.469 0 12.703 -10.297 23 -23 23 c -5.954 0 -11.384 -2.256 -15.469 -5.969 4.178 4.291 10.01 6.969 16.469 6.969 c 12.703 0 23 -10.298 23 -23 0 -6.462 -2.677 -12.291 -6.969 -16.469 z" opacity="0.1"/></g></svg>

<svg viewBox="0 0 48 48" xmlns:xlink="http://www.w3.org/1999/xlink"><defs><linearGradient id="linearGradient3764" x1="1" x2="47" gradientUnits="userSpaceOnUse" gradientTransform="matrix(0,-1,1,0,-1.5e-6,47.999998)"><stop stop-color="#7b7b7d" stop-opacity="1"/><stop offset="1" stop-color="#858587" stop-opacity="1"/></linearGradient><clipPath id="clipPath-933941256"><g transform="translate(0,-1004.3622)"><path d="m -24 13 c 0 1.105 -0.672 2 -1.5 2 -0.828 0 -1.5 -0.895 -1.5 -2 0 -1.105 0.672 -2 1.5 -2 0.828 0 1.5 0.895 1.5 2 z" transform="matrix(15.333333,0,0,11.5,414.99999,878.8622)" fill="#1890d0"/></g></clipPath><clipPath id="clipPath-939452641"><g transform="translate(0,-1004.3622)"><path d="m -24 13 c 0 1.105 -0.672 2 -1.5 2 -0.828 0 -1.5 -0.895 -1.5 -2 0 -1.105 0.672 -2 1.5 -2 0.828 0 1.5 0.895 1.5 2 z" transform="matrix(15.333333,0,0,11.5,414.99999,878.8622)" fill="#1890d0"/></g></clipPath><linearGradient id="linear0" gradientUnits="userSpaceOnUse" x1="-8.184" x2="-5.362" gradientTransform="matrix(0,-3.543307,-3.543307,0,0,0)"><stop stop-color="#c7b953" stop-opacity="1"/><stop offset="1" stop-color="#de7d53" stop-opacity="1"/></linearGradient><linearGradient id="linear1" gradientUnits="userSpaceOnUse" y1="-4.219" x2="0" y2="12.607" gradientTransform="matrix(0.377409,0,0,0.356586,25.072993,22.504552)"><stop stop-color="#fff" stop-opacity="0.6"/><stop offset="1" stop-color="#000" stop-opacity="0"/></linearGradient><linearGradient id="linear0" gradientUnits="userSpaceOnUse" x1="-8.184" x2="-5.362" gradientTransform="matrix(0,-3.543307,-3.543307,0,0,0)"><stop stop-color="#c7b953" stop-opacity="1"/><stop offset="1" stop-color="#de7d53" stop-opacity="1"/></linearGradient><linearGradient id="linear1" gradientUnits="userSpaceOnUse" y1="-4.219" x2="0" y2="12.607" gradientTransform="matrix(0.377409,0,0,0.356586,25.072993,22.504552)"><stop stop-color="#fff" stop-opacity="0.6"/><stop offset="1" stop-color="#000" stop-opacity="0"/></linearGradient></defs><g><g transform="translate(0,-1004.3622)"><path d="m 25 1006.36 c -12.703 0 -23 10.298 -23 23 0 6.367 2.601 12.12 6.781 16.281 4.085 3.712 9.514 5.969 15.469 5.969 12.703 0 23 -10.297 23 -23 0 -5.954 -2.256 -11.384 -5.969 -15.469 -4.165 -4.181 -9.914 -6.781 -16.281 -6.781 z m 16.281 6.781 c 3.854 4.113 6.219 9.637 6.219 15.719 0 12.703 -10.297 23 -23 23 -6.081 0 -11.606 -2.364 -15.719 -6.219 4.16 4.144 9.883 6.719 16.219 6.719 12.703 0 23 -10.297 23 -23 0 -6.335 -2.575 -12.06 -6.719 -16.219 z" opacity="0.05"/><path d="m 41.28 1013.14 c 3.712 4.085 5.969 9.514 5.969 15.469 0 12.703 -10.297 23 -23 23 -5.954 0 -11.384 -2.256 -15.469 -5.969 4.113 3.854 9.637 6.219 15.719 6.219 12.703 0 23 -10.297 23 -23 0 -6.081 -2.364 -11.606 -6.219 -15.719 z" opacity="0.1"/><path transform="matrix(15.333333,0,0,11.5,415.24999,879.11222)" d="m -24 13 a 1.5 2 0 1 1 -3 0 1.5 2 0 1 1 3 0 z" opacity="0.2"/></g></g><g><path d="m 24 1 c 12.703 0 23 10.297 23 23 c 0 12.703 -10.297 23 -23 23 -12.703 0 -23 -10.297 -23 -23 0 -12.703 10.297 -23 23 -23 z" fill="url(#linearGradient3764)" fill-opacity="1"/></g><g/><g><g clip-path="url(#clipPath-933941256)"><g transform="translate(0,1)"><g opacity="0.1"><!-- color: #858587 --><g><path d="m 39.01 24.01 l 0 -0.004 c 0 -8.281 -6.715 -14.996 -15 -14.996 l -0.004 0 c -8.281 0 -14.996 6.715 -14.996 14.996 l 0 0.004 c 0 8.285 6.715 15 14.996 15 l 0.004 0 c 8.285 0 15 -6.715 15 -15 m 0 0" fill="#000" stroke="none" fill-rule="evenodd" fill-opacity="1"/><path d="m 37 24 c 0 -7.18 -5.82 -13 -13 -13 c -7.18 0 -13 5.82 -13 13 c 0 7.18 5.82 13 13 13 c 7.18 0 13 -5.82 13 -13 m 0 0" fill="#000" stroke="none" fill-rule="evenodd" fill-opacity="1"/><path d="m 35 24 l 0 -0.004 c 0 -6.074 -4.922 -11 -10.996 -11 l -0.004 0 c -6.074 0 -11 4.926 -11 11 l 0 0.004 c 0 6.074 4.926 10.996 11 10.996 l 0.004 0 c 6.074 0 10.996 -4.922 10.996 -10.996 m 0 0" fill="#000" stroke="none" fill-rule="evenodd" fill-opacity="1"/><path d="m 33 24 c 0 -4.973 -4.03 -9 -9 -9 c -4.973 0 -9 4.03 -9 9 c 0 4.969 4.03 9 9 9 c 4.969 0 9 -4.03 9 -9 m 0 0" fill="#000" stroke="none" fill-rule="evenodd" fill-opacity="1"/><path d="m 31 24 l 0 -0.004 c 0 -3.867 -3.133 -7 -6.996 -7 l -0.004 0 c -3.867 0 -7 3.133 -7 7 l 0 0.004 c 0 3.863 3.133 6.996 7 6.996 l 0.004 0 c 3.863 0 6.996 -3.133 6.996 -6.996 m 0 0" fill="#000" stroke="none" fill-rule="evenodd" fill-opacity="1"/><path d="m 29 24 c 0 -2.762 -2.238 -5 -5 -5 c -2.762 0 -5 2.238 -5 5 c 0 2.762 2.238 5 5 5 c 2.762 0 5 -2.238 5 -5 m 0 0" fill="#000" stroke="none" fill-rule="evenodd"/><path d="m 27 24 c 0 1.656 -1.344 3 -3 3 c -1.656 0 -3 -1.344 -3 -3 c 0 -1.656 1.344 -3 3 -3 c 1.656 0 3 1.344 3 3 m 0 0" fill="#000" stroke="none" fill-rule="nonzero"/><use xlink:href="#SVGCleanerId_0"/><path d="M 0 0 L 0 32 L 24 24 L 24 0 M 0 0 " fill="#000" stroke="none" fill-rule="nonzero" fill-opacity="0.302"/><path d="M 24 24 L 0 32 L 0 48 L 48 48 L 48 31.75 L 24.003906 24.003906 M 24 24 " fill="#000" stroke="none" fill-rule="nonzero" fill-opacity="0.282"/></g></g></g></g></g><g><g clip-path="url(#clipPath-939452641)"><!-- color: #858587 --><g><path d="m 39.01 24.01 l 0 -0.004 c 0 -8.281 -6.715 -14.996 -15 -14.996 l -0.004 0 c -8.281 0 -14.996 6.715 -14.996 14.996 l 0 0.004 c 0 8.285 6.715 15 14.996 15 l 0.004 0 c 8.285 0 15 -6.715 15 -15 m 0 0" fill="#282828" stroke="none" fill-rule="evenodd" fill-opacity="1"/><path d="m 37 24 c 0 -7.18 -5.82 -13 -13 -13 c -7.18 0 -13 5.82 -13 13 c 0 7.18 5.82 13 13 13 c 7.18 0 13 -5.82 13 -13 m 0 0" fill="#2f2f2f" stroke="none" fill-rule="evenodd" fill-opacity="1"/><path d="m 35 24 l 0 -0.004 c 0 -6.074 -4.922 -11 -10.996 -11 l -0.004 0 c -6.074 0 -11 4.926 -11 11 l 0 0.004 c 0 6.074 4.926 10.996 11 10.996 l 0.004 0 c 6.074 0 10.996 -4.922 10.996 -10.996 m 0 0" fill="#333" stroke="none" fill-rule="evenodd" fill-opacity="1"/><path d="m 33 24 c 0 -4.973 -4.03 -9 -9 -9 c -4.973 0 -9 4.03 -9 9 c 0 4.969 4.03 9 9 9 c 4.969 0 9 -4.03 9 -9 m 0 0" fill="#444" stroke="none" fill-rule="evenodd" fill-opacity="1"/><path d="m 31 24 l 0 -0.004 c 0 -3.867 -3.133 -7 -6.996 -7 l -0.004 0 c -3.867 0 -7 3.133 -7 7 l 0 0.004 c 0 3.863 3.133 6.996 7 6.996 l 0.004 0 c 3.863 0 6.996 -3.133 6.996 -6.996 m 0 0" fill="#535353" stroke="none" fill-rule="evenodd" fill-opacity="1"/><path d="m 29 24 c 0 -2.762 -2.238 -5 -5 -5 c -2.762 0 -5 2.238 -5 5 c 0 2.762 2.238 5 5 5 c 2.762 0 5 -2.238 5 -5 m 0 0" fill="url(#linear0)" stroke="none" fill-rule="evenodd"/><path d="m 27 24 c 0 1.656 -1.344 3 -3 3 c -1.656 0 -3 -1.344 -3 -3 c 0 -1.656 1.344 -3 3 -3 c 1.656 0 3 1.344 3 3 m 0 0" fill="url(#linear1)" stroke="none" fill-rule="nonzero"/><path d="M 24 0 L 24 24 L 48 31.75 L 48 0 M 24 0 " fill="#000" stroke="none" fill-rule="nonzero" fill-opacity="0.302" id="SVGCleanerId_0"/><path d="M 0 0 L 0 32 L 24 24 L 24 0 M 0 0 " fill="#fff" stroke="none" fill-rule="nonzero" fill-opacity="0.302"/><path d="M 24 24 L 0 32 L 0 48 L 48 48 L 48 31.75 L 24.003906 24.003906 M 24 24 " fill="#aaaaaf" stroke="none" fill-rule="nonzero" fill-opacity="0.282"/></g></g></g><g><path d="m 40.03 7.531 c 3.712 4.084 5.969 9.514 5.969 15.469 0 12.703 -10.297 23 -23 23 c -5.954 0 -11.384 -2.256 -15.469 -5.969 4.178 4.291 10.01 6.969 16.469 6.969 c 12.703 0 23 -10.298 23 -23 0 -6.462 -2.677 -12.291 -6.969 -16.469 z" opacity="0.1"/></g></svg>
